X:1
T:AFTER DARK ON BROADWAY.
T:AFTER DARK ON BROADWAY.
T:MARCH and TWO STEP.
T:By ARTHUR TESCHNER.
T:Copyright 1903 by Armstrong Music Publishing Co.
T:Copyright 1903 by Armstrong Music Publishing Co.
T:Copyright 1903 by Armstrong Music Publishing Co.
T:Copyright 1903 by Armstrong Music Publishing Co.
C:By ARTHUR TESCHNER.
Z:Copyright 1903 by Armstrong Music Publishing Co.
%%score { ( 1 3 ) | 2 }
L:1/8
Q:1/4=140
M:6/8
K:F
V:1 treble nm="Piano" snm="Pno."
V:3 treble 
V:2 bass 
V:1
!f! cfa c'af | cfa c'af | [cc']2 [dd'] [cc']2 [dd'] | [cc']2 z z2 z |: cfa c'af | cfa c'af | %6
 c2 d c2 z | c'2 d' c'2 z | dgb d'bg | dgb d'bg | d2 e d2 z | d'2 e' d'2 z | edB GBd | %13
 [EBe]2 [EBe] [EBe]2 z | dcA FAc | [FAd]2 [FAd] [FAd]2 z | =BAG BAG | =BAG BAG | %18
 c2 z{ga=b} !>!c'2 z |1{GA=B} !>!c2 z z2 z :|2{GA=B} !>!c2 z z2 c |: [EBd]3 [EBe]3 | %22
 [EBd]3 [EBe]3 | dcA FAc | [FAd]2 [FAd] [FAd]2 z | edB GBd | [EBe]2 [EBe] [EBe]2 z | dcA FAc | %28
 [FAd]2 [FAd] [FAd]2 c | [EBd]3 [EBe]3 | [EBd]3 [EBe]3 | dcA FAc | [FAd]2 [FAd] [FAd]2 c | %33
 [F_Af]3 [FA=B]3 | [F=Ad]cA GFD | C=B,C ^CDE |1 F2 z !>![FAf]2 z :|2 F2 z !>![FAf]2 F || %38
[K:Bb][M:6/8]!p! d6 | c3 B3 | F3- F2 G | F3- F2 F | d3- d2 d | e3 d3 | c6 | G3- G2 G | e6 | d3 c3 | %48
 G3- G2 A | [CEG]3 [CE_G]3 | [CEF]3 [EFA]3 | [FAc]3 [FAe]3 | [FBd]2 _d c2 =B | _B2 A G2 F | d6 | %55
 c3 B3 | F3- F2 G | F3- F2 F | d3- d2 d | e3 d3 | g6 | e3- e2 G | e6 | d3 c3 | f3- f2 d | B3 e3 | %66
 d6 | c6 | B6- | B2 z !>![dfb]2 z ||!f! D2 D D^CD | E3 D2 z | d2 d d^cd | e3 d2 z | F2 F F=EF | %75
 _G3 F2 z | f2 f f=ef | _g3 f2 z | f=e_e d_dc | =B_BA _AG_G | F2 z{/=e} !>!f2 z | %81
{/=E} !>!F2 z z2 F ||!p! d6 | c3 B3 | F3- F2 G | F3- F2 F | d3- d2 d | e3 d3 | c6 | G3- G2 G | e6 | %91
 d3 c3 | G3- G2 A | [CEG]3 [CE_G]3 | [CEF]3 [EFA]3 | [FAc]3 [FAe]3 | [FBd]2 _d c2 =B | _B2 A G2 F | %98
 d6 | c3 B3 | F3- F2 G | F3- F2 F | d3- d2 d | e3 d3 | g6 | e3- e2 G | e6 | d3 c3 | f3- f2 d | %109
 B3 e3 | d6 | c6 | B6- | B2 z !>![dfb]2 z |] %114
V:2
 C,F,A, CA,F, | C,F,A, CA,F, | [C,C]2 [D,D] [C,C]2 [D,D] | [C,C]2 z !>![C,,C,]2 z |: %4
 F,2 [A,C] C,2 [A,C] | F,2 [A,C] C,2 [A,C] | F,2 [A,C] C,2 [A,C] | F,2 [A,C] C,2 [A,C] | %8
 G,2 [B,D] B,,2 [B,D] | G,2 [B,D] B,,2 [B,D] | G,2 [B,D] B,,2 [B,D] | G,2 [B,D] B,,2 [B,D] | %12
 G,2 [B,C] C,2 [B,C] | G,2 [B,C] C,2 [B,C] | F,2 [A,C] C,2 [A,C] | F,2 [A,C] C,2 [A,C] | %16
 G,,3 ^G,,3 | A,,3 =B,,3 | C,2 z z2 z |1 z2 z !>![C,,C,]2 z :|2 z2 z !>![C,,C,]2 z |: %21
 G,2 [B,C] C,2 [B,C] | G,2 [B,C] C,2 [B,C] | F,2 [A,C] C,2 [A,C] | F,2 [A,C] C,2 [A,C] | %25
 G,2 [B,C] C,2 [B,C] | G,2 [B,C] C,2 [B,C] | F,2 [A,C] C,2 [A,C] | F,2 [A,C] C,2 [A,C] | %29
 G,2 [B,C] C,2 [B,C] | G,2 [B,C] C,2 [B,C] | F,2 [A,C] C,2 [A,C] | F,2 [A,C] C,2 [A,C] | %33
 [_D,_D]3 [D,D]3 | [C,C]CA, G,F,D, | C, z z [C,G,B,]3 |1 [F,A,]2 z !>![F,,F,]2 z :|2 %37
 [F,A,]2 z !>![F,,F,]2 z ||[K:Bb][M:6/8] B,,2 [F,B,D] F,,2 [F,B,D] | B,,2 [F,B,D] F,,2 [F,B,D] | %40
 B,,2 [F,B,D] F,,2 [F,B,D] | B,,2 [F,B,D] F,,2 [F,B,D] | G,,2 [F,G,=B,] G,,2 [F,G,B,] | %43
 G,,2 [F,G,=B,] G,,2 [F,G,B,] | C,2 [E,G,C] E,2 [E,G,C] | C,2 [E,G,C] E,2 [E,G,C] | %46
 F,2 [A,CE] C,2 [A,CE] | F,2 [A,CE] C,2 [A,CE] | F,2 [A,CE] C,2 [A,CE] | F,3 _A,3 | %50
 [F,=A,]3 [F,C]3 | [F,E]3 [F,C]3 | B,2 _D C2 =B, | _B,2 A, G,2 F, | B,,2 [F,B,D] F,,2 [F,B,D] | %55
 B,,2 [F,B,D] F,,2 [F,B,D] | B,,2 [F,B,D] F,,2 [F,B,D] | B,,2 [F,B,D] F,,2 [F,B,D] | %58
 G,,2 [F,G,=B,] G,,2 [F,G,B,] | G,,2 [F,G,=B,] G,,2 [F,G,B,] | C,2 [E,G,C] E,2 [E,G,C] | %61
 C,2 [E,G,C] E,2 [E,G,C] | C,2 [F,A,E] F,,2 [F,A,E] | C,2 [F,A,E] F,,2 [F,A,E] | %64
 B,,2 [F,B,D] F,,2 [F,B,D] | B,,2 [F,B,D] _G,2 [B,E] | [F,B,D]6 | [F,A,C]6 | [B,,B,]2 D, G,2 F, | %69
 B,,2 z !>![B,,,B,,]2 z || D,2 D, D,^C,D, | E,3 D,2 z | D2 D D^CD | E3 D2 z | F,2 F, F,=E,F, | %75
 _G,3 F,2 z | F2 F F=EF | _G3 F2 z | F=E_E D_DC | =B,_B,A, _A,G,_G, | F,2 z z2 z | %81
 z2 z{/=E,,} !>![F,,,F,,]2 z || B,,2 [F,B,D] F,,2 [F,B,D] | B,,2 [F,B,D] F,,2 [F,B,D] | %84
 B,,2 [F,B,D] F,,2 [F,B,D] | B,,2 [F,B,D] F,,2 [F,B,D] | G,,2 [F,G,=B,] G,,2 [F,G,B,] | %87
 G,,2 [F,G,=B,] G,,2 [F,G,B,] | C,2 [E,G,C] E,2 [E,G,C] | C,2 [E,G,C] E,2 [E,G,C] | %90
 F,2 [A,CE] C,2 [A,CE] | F,2 [A,CE] C,2 [A,CE] | F,2 [A,CE] C,2 [A,CE] | F,3 _A,3 | %94
 [F,=A,]3 [F,C]3 | [F,E]3 [F,C]3 | B,2 _D C2 =B, | _B,2 A, G,2 F, | B,,2 [F,B,D] F,,2 [F,B,D] | %99
 B,,2 [F,B,D] F,,2 [F,B,D] | B,,2 [F,B,D] F,,2 [F,B,D] | B,,2 [F,B,D] F,,2 [F,B,D] | %102
 G,,2 [F,G,=B,] G,,2 [F,G,B,] | G,,2 [F,G,=B,] G,,2 [F,G,B,] | C,2 [E,G,C] E,2 [E,G,C] | %105
 C,2 [E,G,C] E,2 [E,G,C] | C,2 [F,A,E] F,,2 [F,A,E] | C,2 [F,A,E] F,,2 [F,A,E] | %108
 B,,2 [F,B,D] F,,2 [F,B,D] | B,,2 [F,B,D] _G,2 [B,E] | [F,B,D]6 | [F,A,C]6 | [B,,B,]2 D, G,2 F, | %113
 B,,2 z !>![B,,,B,,]2 z |] %114
V:3
 x6 | x6 | x6 | x6 |: x6 | x6 | x6 | x6 | x6 | x6 | x6 | x6 | x6 | x6 | x6 | x6 | x6 | x6 | x6 |1 %19
 x6 :|2 x6 |: x6 | x6 | x6 | x6 | x6 | x6 | x6 | x6 | x6 | x6 | x6 | x6 | x6 | x6 | x6 |1 x6 :|2 %37
 x6 ||[K:Bb][M:6/8] x6 | x6 | x6 | x6 | x6 | x6 | x6 | x6 | x6 | x6 | x6 | x6 | x6 | x6 | x6 | x6 | %54
 x6 | x6 | x6 | x6 | x6 | x6 | x6 | x6 | x6 | x6 | x6 | x6 | z2 F =E2 F | z2 _E D2 E | D2 D G2 F | %69
 B,2 x4 || x6 | x6 | x6 | x6 | x6 | x6 | x6 | x6 | x6 | x6 | x6 | x6 || x6 | x6 | x6 | x6 | x6 | %87
 x6 | x6 | x6 | x6 | x6 | x6 | x6 | x6 | x6 | x6 | x6 | x6 | x6 | x6 | x6 | x6 | x6 | x6 | x6 | %106
 x6 | x6 | x6 | x6 | z2 F =E2 F | z2 _E D2 E | D2 D G2 F | B,2 x4 |] %114

